flaticon/arrows/diagonal-9.svg

<svg xmlns="http://www.w3.org/2000/svg" width="32" height="23pt" viewBox="0 0 24 23">
    <path d="M 23.851562 22.164062 L 1.742188 0.980469 L 14.296875 0.980469 C 14.582031 0.980469 14.808594 0.757812 14.808594 0.488281 C 14.808594 0.21875 14.582031 0 14.296875 0 L 0.511719 0 C 0.445312 0 0.378906 0.0117188 0.316406 0.0390625 C 0.191406 0.0859375 0.0898438 0.183594 0.0390625 0.300781 C 0.015625 0.363281 0 0.425781 0 0.488281 L 0 13.703125 C 0 13.972656 0.226562 14.191406 0.511719 14.191406 C 0.792969 14.191406 1.019531 13.972656 1.019531 13.703125 L 1.019531 1.671875 L 23.128906 22.855469 C 23.226562 22.953125 23.359375 23 23.488281 23 C 23.621094 23 23.75 22.953125 23.851562 22.855469 C 24.050781 22.664062 24.050781 22.355469 23.851562 22.164062 Z M 23.851562 22.164062"/>
</svg>

<svg xmlns="http://www.w3.org/2000/svg" width="32" height="23pt" viewBox="0 0 24 23">
    <path d="M23.852 22.164L1.742.98h12.555a.502.502 0 0 0 .512-.492.499.499 0 0 0-.512-.488H.512a.485.485 0 0 0-.196.04A.494.494 0 0 0 .04.3.537.537 0 0 0 0 .489v13.215c0 .27.227.488.512.488a.498.498 0 0 0 .508-.488V1.672l22.109 21.183c.098.098.23.145.36.145a.517.517 0 0 0 .363-.145c.199-.19.199-.5 0-.69zm0 0"/>
</svg>
